src/assets/Icone login.svg

<svg width="48" height="48" viewBox="0 0 48 48" fill="none" xmlns="http://www.w3.org/2000/svg">
<circle cx="24" cy="24" r="24" fill="#5A5A5A"/>
<mask id="mask0_4_51" style="mask-type:alpha" maskUnits="userSpaceOnUse" x="12" y="12" width="24" height="24">
<rect x="12" y="12" width="24" height="24" fill="#D9D9D9"/>
</mask>
<g mask="url(#mask0_4_51)">
<path d="M24 24C22.9 24 21.9583 23.6083 21.175 22.825C20.3917 22.0417 20 21.1 20 20C20 18.9 20.3917 17.9583 21.175 17.175C21.9583 16.3917 22.9 16 24 16C25.1 16 26.0417 16.3917 26.825 17.175C27.6083 17.9583 28 18.9 28 20C28 21.1 27.6083 22.0417 26.825 22.825C26.0417 23.6083 25.1 24 24 24ZM16 32V29.2C16 28.6333 16.1458 28.1125 16.4375 27.6375C16.7292 27.1625 17.1167 26.8 17.6 26.55C18.6333 26.0333 19.6833 25.6458 20.75 25.3875C21.8167 25.1292 22.9 25 24 25C25.1 25 26.1833 25.1292 27.25 25.3875C28.3167 25.6458 29.3667 26.0333 30.4 26.55C30.8833 26.8 31.2708 27.1625 31.5625 27.6375C31.8542 28.1125 32 28.6333 32 29.2V32H16ZM18 30H30V29.2C30 29.0167 29.9542 28.85 29.8625 28.7C29.7708 28.55 29.65 28.4333 29.5 28.35C28.6 27.9 27.6917 27.5625 26.775 27.3375C25.8583 27.1125 24.9333 27 24 27C23.0667 27 22.1417 27.1125 21.225 27.3375C20.3083 27.5625 19.4 27.9 18.5 28.35C18.35 28.4333 18.2292 28.55 18.1375 28.7C18.0458 28.85 18 29.0167 18 29.2V30ZM24 22C24.55 22 25.0208 21.8042 25.4125 21.4125C25.8042 21.0208 26 20.55 26 20C26 19.45 25.8042 18.9792 25.4125 18.5875C25.0208 18.1958 24.55 18 24 18C23.45 18 22.9792 18.1958 22.5875 18.5875C22.1958 18.9792 22 19.45 22 20C22 20.55 22.1958 21.0208 22.5875 21.4125C22.9792 21.8042 23.45 22 24 22Z" fill="#F6F6F6"/>
</g>
</svg>

<svg xmlns="http://www.w3.org/2000/svg" width="48" height="48" fill="none" viewBox="0 0 48 48"><circle cx="24" cy="24" r="24" fill="#5a5a5a"/><mask id="a" width="24" height="24" x="12" y="12" maskUnits="userSpaceOnUse" style="mask-type:alpha"><path fill="#d9d9d9" d="M12 12h24v24H12z"/></mask><g mask="url(#a)"><path fill="#f6f6f6" d="M24 24q-1.65 0-2.825-1.175T20 20t1.175-2.825T24 16t2.825 1.175T28 20t-1.175 2.825T24 24m-8 8v-2.8q0-.85.438-1.562.437-.713 1.162-1.088a14.8 14.8 0 0 1 3.15-1.163A13.8 13.8 0 0 1 24 25q1.65 0 3.25.387 1.6.388 3.15 1.163.724.376 1.163 1.087Q32 28.35 32 29.2V32zm2-2h12v-.8a.973.973 0 0 0-.5-.85q-1.35-.675-2.725-1.012a11.6 11.6 0 0 0-5.55 0q-1.375.337-2.725 1.012a.97.97 0 0 0-.5.85zm6-8q.824 0 1.413-.587Q26 20.825 26 20q0-.824-.587-1.413A1.93 1.93 0 0 0 24 18q-.824 0-1.413.587A1.93 1.93 0 0 0 22 20q0 .824.587 1.413Q23.176 22 24 22"/></g></svg>
